X: 11742
Q: "Strathspey."
M: C
L: 1/8
K: D
f>d a2 f>d a2 | e>=c g2 e>c g2 |
{a}f>d a2 f>d a2 | c>e (3(cBA) d2 d>a |\
f>d a2 f>d a2 | e>=c g2 e>c g2 |\
(3(fag) (3(fed) (3(cBA) (3(GFE) | (3(DEF) (3(ABc) (3(dcB) (3("^D.C."AGF) !segno!:|


